data/styles/clear/style-night/symbols/subway-london-s.svg

<svg height="13" viewBox="0 0 17 13" width="17"><g fill="none" fill-rule="evenodd"><path d="m2.49816335 4c.97955962-2.34895185 3.29788666-4 6.00183665-4 2.70395 0 5.022277 1.65104815 6.0018367 4h2.4981633v5h-2.4981633c-.9795597 2.3489518-3.2978867 4-6.0018367 4-2.70394999 0-5.02227703-1.6510482-6.00183665-4h-2.49816335v-5z" fill="#fff" opacity=".6"/><path d="m8.5 12c-3.03756612 0-5.5-2.46243388-5.5-5.5s2.46243388-5.5 5.5-5.5c3.0375661 0 5.5 2.46243388 5.5 5.5s-2.4624339 5.5-5.5 5.5zm0-2c1.9329966 0 3.5-1.56700338 3.5-3.5s-1.5670034-3.5-3.5-3.5c-1.93299662 0-3.5 1.56700338-3.5 3.5s1.56700338 3.5 3.5 3.5z" fill="#b32d2d"/><path d="m1 5h15v3h-15z" fill="#032759"/></g></svg>

<svg width="17" height="13" viewBox="0 0 17 13">
  <g fill="none">
    <path fill="#FFF" d="M2.49816335,4 C3.47772297,1.65104815 5.79605001,0 8.5,0 C11.20395,0 13.522277,1.65104815 14.5018367,4 L17,4 L17,9 L14.5018367,9 C13.522277,11.3489518 11.20395,13 8.5,13 C5.79605001,13 3.47772297,11.3489518 2.49816335,9 L0,9 L0,4 L2.49816335,4 Z" opacity=".4"/>
    <path fill="#941818" d="M8.5,12 C5.46243388,12 3,9.53756612 3,6.5 C3,3.46243388 5.46243388,1 8.5,1 C11.5375661,1 14,3.46243388 14,6.5 C14,9.53756612 11.5375661,12 8.5,12 Z M8.5,10 C10.4329966,10 12,8.43299662 12,6.5 C12,4.56700338 10.4329966,3 8.5,3 C6.56700338,3 5,4.56700338 5,6.5 C5,8.43299662 6.56700338,10 8.5,10 Z"/>
    <rect width="15" height="3" x="1" y="5" fill="#021C40"/>
  </g>
</svg>
